img/pages/gigabit/icon-twitter.svg

<?xml version="1.0" encoding="UTF-8" standalone="no"?>
<svg width="86px" height="71px" viewBox="0 0 86 71" version="1.1" xmlns="http://www.w3.org/2000/svg" xmlns:xlink="http://www.w3.org/1999/xlink">
    <!-- Generator: Sketch 40 (33762) - http://www.bohemiancoding.com/sketch -->
    <title>icon-community-twitter</title>
    <desc>Created with Sketch.</desc>
    <defs>
        <polyline id="path-1" points="0 0.907893617 86 0.907893617 86 71 0 71"></polyline>
    </defs>
    <g id="Symbols" stroke="none" stroke-width="1" fill="none" fill-rule="evenodd">
        <g id="gigabit-cta-footer" transform="translate(-381.000000, -3.000000)">
            <g id="icon-community-twitter">
                <g transform="translate(381.000000, 3.000000)">
                    <g id="Page-1">
                        <g>
                            <g id="icon-community-twitter">
                                <g id="Fill-1-Clipped">
                                    <mask id="mask-2" fill="white">
                                        <use xlink:href="#path-1"></use>
                                    </mask>
                                    <g id="path-1"></g>
                                    <path d="M3.80436842,63.4718851 C11.0012105,67.5173745 18.7306491,69.4887574 27.3366842,69.4887574 C33.6448596,69.4887574 39.225807,68.5657574 44.3918421,66.6638638 C49.784193,64.6819064 54.2184737,62.1621617 57.9511754,58.9580979 C61.7412105,55.8129489 65.0303333,52.0816723 67.7340526,47.8594383 C70.5645088,43.4378 72.5545789,39.1324809 73.8204386,34.6972468 C75.1179825,30.1472043 75.775807,25.5352255 75.775807,20.9882043 L75.775807,18.7811617 C75.775807,18.5349277 75.8934912,18.3068213 76.0941579,18.1648213 C78.8008947,16.2417787 81.160614,13.9728 83.2638421,11.2687574 C80.6838421,11.8579064 78.5338421,11.592034 78.4206842,11.5784383 C78.1475965,11.5436936 77.9167544,11.362417 77.8156667,11.1071191 C77.7130702,10.8518213 77.7598421,10.5617787 77.9348596,10.3487787 C77.959,10.318566 80.0365789,7.77011915 81.4578421,4.66575745 C78.5338421,6.17488511 75.4363333,7.24592766 72.044614,7.92420426 C71.7911404,7.97405532 71.5271053,7.89097021 71.3490702,7.70214043 C68.0599474,4.19594894 63.9772105,2.41792766 59.2140175,2.41792766 C54.5986842,2.41792766 50.7679123,4.00711915 47.5044386,7.27614043 C44.2379474,10.5451617 42.6507193,14.3806723 42.6507193,19.0017149 C42.6507193,20.4232255 42.7880175,21.6634596 43.0686491,22.793417 C43.1259825,23.0200128 43.0731754,23.2586936 42.9313509,23.4414809 C42.7880175,23.6257787 42.5692456,23.7315234 42.3368947,23.7315234 C41.4271053,23.7315234 40.5640877,23.6318213 39.7312456,23.5351404 C39.2982281,23.4868 38.862193,23.4354383 38.4125789,23.3976723 C32.6671754,22.722417 27.3487544,21.0697787 22.1329298,18.3445872 C16.2215614,15.2810128 11.0826842,11.1992681 6.84454386,6.20660851 C5.719,8.4740766 5.14868421,10.9515234 5.14868421,13.5890979 C5.14868421,16.5318213 5.80047368,19.1195447 7.14629825,21.5003106 C8.54945614,23.9838 10.3614912,25.9793532 12.532614,27.4280553 C12.8147544,27.6153745 12.9369649,27.9688638 12.8313509,28.2891191 C12.7272456,28.6123957 12.3847544,28.8374809 12.0845088,28.8118 C9.66896491,28.7151191 7.31226316,28.1365447 5.06570175,27.0896723 C5.26033333,30.6759277 6.49903509,33.8059702 8.83461404,36.6308638 C11.3557719,39.6808426 14.5498421,41.5993532 18.3262982,42.335034 C18.6748246,42.4030128 18.929807,42.7066511 18.9358421,43.0631617 C18.9418772,43.421183 18.6989649,43.7323745 18.3519474,43.8124383 C16.7104035,44.1916085 15.1307193,44.3834596 13.6581579,44.3834596 C12.9897719,44.3834596 12.2625439,44.3834596 11.4779825,44.3169915 C12.6080526,47.1403745 14.4170702,49.4879064 16.865807,51.3052043 C19.6917368,53.4004596 22.8360175,54.4730128 26.4751754,54.5802681 C26.7920175,54.5893319 27.0696316,54.7962894 27.1692105,55.098417 C27.2702982,55.399034 27.1692105,55.7313745 26.9202632,55.9277574 C20.5728596,60.9460979 13.1798772,63.4900128 4.945,63.4900128 C4.55573684,63.4900128 4.17552632,63.4839702 3.80436842,63.4718851 M27.3366842,70.9993957 C17.5070351,70.9993957 8.42573684,68.3588 0.346263158,63.1486085 C0.0550701754,62.9612894 -0.0716666667,62.5972255 0.0414912281,62.2679064 C0.151631579,61.9400979 0.486578947,61.7270979 0.821526316,61.7618426 C2.00591228,61.8690979 3.41963158,61.9793745 4.945,61.9793745 C12.1524035,61.9793745 18.685386,59.9460553 24.3930702,55.9307787 C21.2804737,55.5289489 18.5088596,54.4035234 15.9680877,52.5197574 C12.9384737,50.270417 10.8065789,47.2838851 9.63124561,43.6402255 C9.54977193,43.3879489 9.60710526,43.1099915 9.78212281,42.9105872 C9.95563158,42.711183 10.2257018,42.6145021 10.4837018,42.6643532 C12.049807,42.9498638 13.3714912,42.924183 14.715807,42.8380766 C12.0105789,41.7428638 9.65085965,39.9875021 7.67285965,37.5946511 C4.88464912,34.2213957 3.52826316,30.4523532 3.52826316,26.0684809 L3.52826316,25.8479277 C3.52826316,25.5820553 3.66857895,25.3343106 3.89791228,25.1983532 C4.12724561,25.0623957 4.41240351,25.0578638 4.64475439,25.1847574 C6.2244386,26.0473319 7.86296491,26.6500766 9.54675439,26.9899702 C8.11040351,25.6636298 6.86566667,24.0759489 5.83215789,22.2435447 C4.37770175,19.6648851 3.63991228,16.7538851 3.63991228,13.5890979 C3.63991228,10.3487787 4.47577193,7.20060851 6.05847368,4.48448085 C6.18219298,4.27148085 6.40549123,4.13099149 6.65292982,4.11286383 C6.88678947,4.09171489 7.13875439,4.19594894 7.29415789,4.38931064 C11.5368246,9.61460851 16.7632105,13.8595021 22.8284737,17.0046511 C27.8813509,19.6437362 33.0277719,21.2435021 38.5649649,21.8960979 C39.0040175,21.9308426 39.4566491,21.9837149 39.9032456,22.0350766 C40.4132105,22.0939915 40.9035614,22.1513957 41.3984386,22.1861404 C41.2264386,21.2072468 41.1419474,20.1558426 41.1419474,19.0017149 C41.1419474,14.0302043 42.923807,9.72488511 46.4377368,6.20811915 C49.9486491,2.69135319 54.2486491,0.907289362 59.2140175,0.907289362 C64.2699123,0.907289362 68.6212105,2.74120426 72.1547544,6.36069362 C75.9372456,5.56156596 79.3380175,4.24277872 82.5441579,2.33786383 C82.8142281,2.17622553 83.1552105,2.20190638 83.3996316,2.39677872 C83.6440526,2.5931617 83.7421228,2.92097021 83.6455614,3.2200766 C82.7312456,6.04497021 81.0323684,8.67801277 79.9882982,10.1342681 C81.2224737,10.1176511 83.1129649,9.93637447 84.944614,9.14177872 C85.2539123,9.00733191 85.6145088,9.0934383 85.8272456,9.35477872 C86.0414912,9.61460851 86.0580877,9.98471489 85.8679825,10.2626723 C83.410193,13.8413745 80.5993509,16.758417 77.2845789,19.1678851 L77.2845789,20.9882043 C77.2845789,25.6757149 76.6071404,30.4266723 75.2703684,35.1111617 C73.9652807,39.6899064 71.9163684,44.1266511 69.0044386,48.675183 C66.2162281,53.0273319 62.8245088,56.8764383 58.9228246,60.1137362 C55.0618772,63.4280766 50.4767193,66.0369489 44.9138772,68.0823532 C39.5758421,70.046183 33.8244035,70.9993957 27.3366842,70.9993957" id="Fill-1" fill="#E38300" mask="url(#mask-2)"></path>
                                </g>
                            </g>
                        </g>
                    </g>
                </g>
            </g>
        </g>
    </g>
</svg>

<svg width="86" height="71" viewBox="0 0 86 71" xmlns="http://www.w3.org/2000/svg" xmlns:xlink="http://www.w3.org/1999/xlink">
    <title>
        icon-community-twitter
    </title>
    <defs>
        <path id="a" d="M0 .908h86V71H0"/>
    </defs>
    <g fill="none" fill-rule="evenodd">
        <mask id="b" fill="#fff">
            <use xlink:href="#a"/>
        </mask>
        <path d="M3.804 63.472C11 67.517 18.73 69.49 27.337 69.49c6.308 0 11.89-.924 17.055-2.826 5.392-1.982 9.826-4.502 13.56-7.706 3.79-3.145 7.078-6.876 9.782-11.1 2.83-4.42 4.82-8.726 6.086-13.16 1.298-4.55 1.956-9.163 1.956-13.71V18.78c0-.245.117-.473.318-.615 2.707-1.923 5.067-4.192 7.17-6.896-2.58.588-4.73.322-4.843.308-.272-.034-.503-.216-.604-.47-.103-.256-.056-.546.12-.76.023-.03 2.1-2.578 3.522-5.682-2.924 1.51-6.022 2.58-9.413 3.258-.254.05-.518-.033-.696-.222-3.29-3.506-7.373-5.284-12.136-5.284-4.615 0-8.446 1.59-11.71 4.858-3.266 3.27-4.853 7.105-4.853 11.726 0 1.42.138 2.66.42 3.79.056.228.003.467-.14.65-.142.184-.36.29-.593.29-.91 0-1.773-.1-2.606-.197-.432-.048-.868-.1-1.317-.137-5.746-.676-11.064-2.328-16.28-5.053-5.91-3.064-11.05-7.146-15.288-12.138C5.72 8.474 5.15 10.952 5.15 13.59c0 2.942.65 5.53 1.996 7.91 1.403 2.484 3.215 4.48 5.387 5.928.282.187.404.54.298.86-.103.324-.445.55-.745.524-2.416-.097-4.773-.675-7.02-1.722.195 3.586 1.434 6.716 3.77 9.54 2.52 3.05 5.715 4.97 9.49 5.705.35.068.605.372.61.728.007.358-.236.67-.583.75-1.642.38-3.22.57-4.694.57-.668 0-1.395 0-2.18-.066 1.13 2.823 2.94 5.17 5.388 6.988 2.826 2.095 5.97 3.168 9.61 3.275.316.01.594.216.693.518.1.3 0 .633-.25.83-6.347 5.018-13.74 7.562-21.975 7.562-.39 0-.77-.006-1.14-.018M27.336 71c-9.83 0-18.91-2.64-26.99-7.85-.292-.19-.42-.553-.306-.882.112-.328.447-.54.782-.506 1.184.107 2.598.217 4.123.217 7.207 0 13.74-2.034 19.448-6.05-3.113-.4-5.884-1.526-8.425-3.41-3.03-2.25-5.16-5.236-6.337-8.88-.08-.252-.023-.53.152-.73.174-.2.444-.295.702-.246 1.566.286 2.887.26 4.232.174-2.705-1.095-5.065-2.85-7.043-5.243-2.788-3.374-4.145-7.143-4.145-11.527v-.22c0-.266.14-.514.37-.65.23-.136.514-.14.747-.013 1.58.862 3.218 1.465 4.902 1.805-1.437-1.326-2.68-2.914-3.715-4.746-1.454-2.58-2.192-5.49-2.192-8.655 0-3.24.836-6.39 2.418-9.106.124-.213.347-.353.595-.37.234-.022.486.082.64.275 4.244 5.225 9.47 9.47 15.535 12.615 5.053 2.64 10.2 4.24 15.737 4.89.44.036.892.09 1.338.14.51.06 1 .116 1.495.15-.172-.978-.256-2.03-.256-3.183 0-4.972 1.782-9.277 5.296-12.794 3.51-3.517 7.81-5.3 12.776-5.3 5.056 0 9.407 1.833 12.94 5.453 3.783-.798 7.184-2.117 10.39-4.022.27-.162.61-.136.856.06.244.195.342.523.246.822-.915 2.825-2.614 5.458-3.658 6.914 1.234-.016 3.125-.198 4.957-.992.31-.135.67-.05.882.213.214.26.23.63.04.908-2.457 3.578-5.268 6.495-8.582 8.905v1.82c0 4.688-.678 9.44-2.015 14.123-1.305 4.58-3.354 9.017-6.266 13.565-2.788 4.352-6.18 8.2-10.08 11.44-3.862 3.313-8.447 5.922-14.01 7.967C39.576 70.046 33.824 71 27.337 71" fill="#E38300" mask="url(#b)"/>
    </g>
</svg>
